assets/images/plans.svg

<svg width="20" height="20" viewBox="0 0 20 20" fill="none" xmlns="http://www.w3.org/2000/svg">
<path d="M10.0814 6.51477C9.68165 6.18659 9.21029 5.95712 8.70544 5.84491V5.13582C8.70544 4.96243 8.63656 4.79614 8.51395 4.67354C8.39135 4.55093 8.22506 4.48206 8.05167 4.48206C7.87828 4.48206 7.71199 4.55093 7.58939 4.67354C7.46678 4.79614 7.3979 4.96243 7.3979 5.13582V5.83887C6.7029 5.99175 6.0602 6.40715 5.73834 7.0931C5.40442 7.79816 5.42353 8.52636 5.84194 9.17308C6.23017 9.77153 6.91411 10.2272 7.75798 10.5772C8.52741 10.897 8.93978 11.236 9.13189 11.5307C9.30087 11.7902 9.33305 12.0657 9.2023 12.4158C9.08663 12.7286 8.73963 12.971 8.14722 12.9921C7.56285 13.0122 6.93021 12.7939 6.53493 12.4168C6.47285 12.3574 6.39969 12.3108 6.31961 12.2797C6.23954 12.2486 6.15412 12.2336 6.06825 12.2355C5.98237 12.2375 5.89771 12.2563 5.8191 12.2909C5.74049 12.3255 5.66947 12.3753 5.6101 12.4374C5.55073 12.4995 5.50417 12.5726 5.47307 12.6527C5.44198 12.7328 5.42696 12.8182 5.42887 12.9041C5.43079 12.99 5.4496 13.0746 5.48423 13.1532C5.51886 13.2318 5.56864 13.3028 5.63072 13.3622C6.1135 13.8239 6.75118 14.1166 7.3979 14.2373V14.8639C7.3979 15.0373 7.46678 15.2035 7.58939 15.3262C7.71199 15.4488 7.87828 15.5176 8.05167 15.5176C8.22506 15.5176 8.39135 15.4488 8.51395 15.3262C8.63656 15.2035 8.70544 15.0373 8.70544 14.8639V14.2393C9.42961 14.0934 10.1276 13.68 10.4284 12.8714C10.6879 12.1744 10.6456 11.4593 10.2272 10.8176C9.83293 10.2101 9.14698 9.73834 8.25886 9.36921C7.52061 9.06345 7.1193 8.73958 6.94027 8.46198C6.7904 8.23166 6.76123 7.98725 6.92015 7.65031C7.04889 7.37774 7.36169 7.14842 7.81933 7.09109C8.26993 7.03476 8.803 7.15948 9.2546 7.5276C9.38917 7.63466 9.56051 7.68439 9.73149 7.66601C9.90247 7.64763 10.0593 7.56262 10.1681 7.4294C10.2768 7.29618 10.3287 7.12548 10.3125 6.95429C10.2962 6.78309 10.2132 6.62518 10.0814 6.51477Z" fill="#009640"/>
<path fill-rule="evenodd" clip-rule="evenodd" d="M0.696318 16.3354C0.696318 17.0422 0.977132 17.7202 1.47698 18.22C1.97683 18.7199 2.65478 19.0007 3.36167 19.0007H12.6472C13.3541 19.0007 14.032 18.7199 14.5319 18.22C15.0317 17.7202 15.3125 17.0422 15.3125 16.3354V3.66536C15.3125 2.95846 15.0317 2.28052 14.5319 1.78066C14.032 1.28081 13.3541 1 12.6472 1H3.36067C2.65377 1 1.97583 1.28081 1.47598 1.78066C0.976126 2.28052 0.695313 2.95846 0.695312 3.66536L0.696318 16.3354ZM3.36167 17.6932C3.18336 17.6932 3.0068 17.6581 2.84206 17.5898C2.67732 17.5216 2.52763 17.4216 2.40155 17.2955C2.27546 17.1694 2.17545 17.0197 2.10721 16.855C2.03897 16.6902 2.00385 16.5137 2.00385 16.3354V3.66536C2.00385 2.91503 2.61135 2.30753 3.36167 2.30753H12.6472C13.3965 2.30753 14.005 2.91503 14.005 3.66536V16.3354C14.005 16.6955 13.8619 17.0408 13.6073 17.2955C13.3527 17.5501 13.0073 17.6932 12.6472 17.6932H3.36167Z" fill="#009640"/>
<path d="M19.8002 7.38686C19.8002 6.94671 19.6253 6.5246 19.3141 6.21337C19.0029 5.90214 18.5808 5.72729 18.1406 5.72729H17.2153C17.0419 5.72729 16.8756 5.79617 16.753 5.91878C16.6304 6.04138 16.5615 6.20767 16.5615 6.38106C16.5615 6.55445 16.6304 6.72074 16.753 6.84334C16.8756 6.96595 17.0419 7.03483 17.2153 7.03483H18.1406C18.234 7.03483 18.3235 7.07192 18.3895 7.13793C18.4556 7.20395 18.4926 7.29349 18.4926 7.38686V15.4433C18.4926 15.5366 18.4556 15.6262 18.3895 15.6922C18.3235 15.7582 18.234 15.7953 18.1406 15.7953H17.2153C17.0419 15.7953 16.8756 15.8642 16.753 15.9868C16.6304 16.1094 16.5615 16.2757 16.5615 16.4491C16.5615 16.6225 16.6304 16.7887 16.753 16.9113C16.8756 17.034 17.0419 17.1028 17.2153 17.1028H18.1406C18.5808 17.1028 19.0029 16.928 19.3141 16.6168C19.6253 16.3055 19.8002 15.8834 19.8002 15.4433V7.38686Z" fill="#009640"/>
</svg>

<svg width="20" height="20" fill="none" xmlns="http://www.w3.org/2000/svg"><path d="M10.081 6.515a3.295 3.295 0 0 0-1.376-.67v-.71a.654.654 0 1 0-1.307 0v.704c-.695.153-1.338.568-1.66 1.254-.334.705-.314 1.433.104 2.08.388.599 1.072 1.054 1.916 1.404.77.32 1.182.659 1.374.954.169.26.201.535.07.885-.115.313-.462.555-1.055.576-.584.02-1.217-.198-1.612-.575a.654.654 0 1 0-.904.945c.482.462 1.12.755 1.767.875v.627a.654.654 0 0 0 1.307 0v-.625c.725-.146 1.423-.559 1.723-1.368.26-.697.218-1.412-.2-2.053-.395-.608-1.081-1.08-1.97-1.449-.737-.306-1.139-.63-1.318-.907-.15-.23-.179-.475-.02-.812.129-.272.442-.502.9-.559.45-.056.983.068 1.435.437a.654.654 0 0 0 .826-1.013Z" fill="#009640"/><path fill-rule="evenodd" clip-rule="evenodd" d="M.696 16.335a2.665 2.665 0 0 0 2.666 2.666h9.285a2.665 2.665 0 0 0 2.665-2.666V3.665A2.666 2.666 0 0 0 12.648 1H3.361A2.665 2.665 0 0 0 .695 3.665l.001 12.67Zm2.666 1.358a1.357 1.357 0 0 1-1.358-1.358V3.665c0-.75.607-1.357 1.358-1.357h9.285c.75 0 1.358.607 1.358 1.357v12.67a1.358 1.358 0 0 1-1.358 1.358H3.362Z" fill="#009640"/><path d="M19.8 7.387a1.66 1.66 0 0 0-1.66-1.66h-.925a.654.654 0 1 0 0 1.308h.926a.352.352 0 0 1 .352.352v8.056a.352.352 0 0 1-.352.352h-.926a.654.654 0 0 0 0 1.308h.926a1.66 1.66 0 0 0 1.66-1.66V7.387Z" fill="#009640"/></svg>
